signal.svg

<svg fill="currentColor" viewBox="0 0 24 24"><path d="M3 21h3v-3H3m5 3h3v-7H8m5 7h3V9h-3m5 12h3V3h-3z"/></svg>

<svg  viewBox="0 0 24 24" fill="currentColor"><path  d="M3,21H6V18H3M8,21H11V14H8M13,21H16V9H13M18,21H21V3H18V21Z"/></svg>
